ui/StatusQ/src/assets/img/icons/tiny/chevron-up.svg

<svg fill="none" height="16" viewBox="0 0 16 16" width="16" xmlns="http://www.w3.org/2000/svg"><path clip-rule="evenodd" d="m4.46967 10.5303c.29289.2929.76777.2929 1.06066 0l2.11612-2.11609c.19526-.19526.51184-.19526.7071 0l2.11615 2.11609c.2929.2929.7677.2929 1.0606 0s.2929-.76774 0-1.06063l-2.99997-3c-.29289-.29289-.76777-.29289-1.06066 0l-3 3c-.29289.29289-.29289.76773 0 1.06063z" fill="#000" fill-rule="evenodd"/></svg>

<svg width="16" height="16" viewBox="0 0 16 16" fill="none" xmlns="http://www.w3.org/2000/svg">
<path fill-rule="evenodd" clip-rule="evenodd" d="M4.46967 10.5303C4.76256 10.8232 5.23744 10.8232 5.53033 10.5303L7.64645 8.41421C7.84171 8.21895 8.15829 8.21895 8.35355 8.41421L10.4697 10.5303C10.7626 10.8232 11.2374 10.8232 11.5303 10.5303C11.8232 10.2374 11.8232 9.76256 11.5303 9.46967L8.53033 6.46967C8.23744 6.17678 7.76256 6.17678 7.46967 6.46967L4.46967 9.46967C4.17678 9.76256 4.17678 10.2374 4.46967 10.5303Z" fill="black"/>
</svg>
